assets/Face blowing a kiss/Flat/face_blowing_a_kiss_flat.svg

<svg width="32" height="32" viewBox="0 0 32 32" fill="none" xmlns="http://www.w3.org/2000/svg">
<path d="M15.9989 29.9978C25.3333 29.9978 29.9978 23.7303 29.9978 15.9989C29.9978 8.26751 25.3333 2 15.9989 2C6.66443 2 2 8.26751 2 15.9989C2 23.7303 6.66443 29.9978 15.9989 29.9978Z" fill="#FFB02E"/>
<path d="M13.9577 17.3801C14.6085 16.5997 15 15.5956 15 14.5C15 12.0147 12.9853 10 10.5 10C8.01472 10 6 12.0147 6 14.5C6 15.5956 6.39151 16.5997 7.04226 17.3801C7.46167 17.1697 7.98923 16.9452 8.59045 16.7756C9.16901 16.6124 10.5 16 10.5 16C10.5 16 12.4354 16.744 13.1827 17.0353C13.4694 17.147 13.7296 17.2656 13.9577 17.3801Z" fill="white"/>
<path d="M6.97423 9.65811C7.11769 9.22774 7.47625 8.55049 8.06915 7.98761C8.65355 7.4328 9.45198 7 10.4999 7C10.776 7 10.9999 6.77614 10.9999 6.5C10.9999 6.22386 10.776 6 10.4999 6C9.1478 6 8.1129 6.5672 7.38064 7.26239C6.65687 7.94951 6.21542 8.77226 6.02555 9.34189C5.93823 9.60386 6.07981 9.88702 6.34178 9.97434C6.60375 10.0617 6.88691 9.92009 6.97423 9.65811Z" fill="#402A32"/>
<path d="M21 8.5C21 8.22386 21.2239 8 21.5 8C22.2743 8 23.2425 8.2843 24.0846 8.83052C24.9329 9.38077 25.697 10.2264 25.9851 11.3787C26.052 11.6466 25.8892 11.9181 25.6213 11.9851C25.3534 12.052 25.0819 11.8892 25.0149 11.6213C24.803 10.7736 24.2338 10.1192 23.5404 9.66948C22.8408 9.2157 22.0591 9 21.5 9C21.2239 9 21 8.77614 21 8.5Z" fill="#402A32"/>
<path d="M14 15C14 15.7885 13.6958 16.5059 13.1984 17.0414C12.4484 16.7475 11.5155 16.5 10.5 16.5C9.8129 16.5 9.16357 16.6133 8.58314 16.7776C8.2166 16.2801 8 15.6654 8 15C8 13.3431 9.34315 12 11 12C12.6569 12 14 13.3431 14 15Z" fill="#402A32"/>
<path d="M18.9701 15.2425C19.0479 14.9314 19.5452 14 21 14C22.4548 14 22.9521 14.9314 23.0299 15.2425C23.1638 15.7783 23.7067 16.1041 24.2425 15.9701C24.7783 15.8362 25.1041 15.2933 24.9701 14.7575C24.7146 13.7352 23.5452 12 21 12C18.4548 12 17.2854 13.7352 17.0299 14.7575C16.8959 15.2933 17.2217 15.8362 17.7575 15.9701C18.2933 16.1041 18.8362 15.7783 18.9701 15.2425Z" fill="#402A32"/>
<path d="M16.6699 17.92C16.1176 17.92 15.6699 18.3677 15.6699 18.92C15.6699 19.4723 16.1176 19.92 16.6699 19.92C16.9576 19.92 17.1899 20.1523 17.1899 20.44C17.1899 20.7277 16.9576 20.96 16.6699 20.96C16.1176 20.96 15.6699 21.4077 15.6699 21.96C15.6699 21.96 15.6699 21.96 15.6699 21.96C15.6699 22.5123 16.1176 22.96 16.6699 22.96C16.9576 22.96 17.1899 23.1923 17.1899 23.48C17.1899 23.7677 16.9576 24 16.6699 24C16.1176 24 15.6699 24.4477 15.6699 25C15.6699 25.5523 16.1176 26 16.6699 26C18.0622 26 19.1899 24.8723 19.1899 23.48C19.1899 22.909 19.0002 22.3825 18.6804 21.96C19.0002 21.5375 19.1899 21.011 19.1899 20.44C19.1899 19.0477 18.0622 17.92 16.6699 17.92Z" fill="#402A32"/>
<path d="M23.7419 26.5691C24.8387 26.552 26.7405 26.338 28.4789 25.2313C31.1717 23.5171 30.2894 19.649 26.259 20.2548C25.4832 17.339 21.4614 17.132 21.0677 20.2713C20.8041 22.3735 21.7582 24.5858 22.3614 25.7347C22.6337 26.2533 23.1563 26.5782 23.7419 26.5691Z" fill="#F70A8D"/>
</svg>

<svg xmlns="http://www.w3.org/2000/svg" width="32" height="32" fill="none"><path fill="#FFB02E" d="M15.999 29.998c9.334 0 13.999-6.268 13.999-14 0-7.73-4.665-13.998-14-13.998C6.665 2 2 8.268 2 15.999c0 7.731 4.664 13.999 13.999 13.999Z"/><path fill="#fff" d="M13.958 17.38a4.5 4.5 0 1 0-6.915 0c.419-.21.946-.435 1.547-.604C9.17 16.612 10.5 16 10.5 16s1.935.744 2.683 1.035c.286.112.547.23.775.345Z"/><path fill="#402A32" d="M6.974 9.658c.144-.43.502-1.108 1.095-1.67C8.654 7.433 9.452 7 10.5 7a.5.5 0 0 0 0-1c-1.351 0-2.386.567-3.118 1.262-.724.688-1.166 1.51-1.355 2.08a.5.5 0 0 0 .948.316ZM21 8.5a.5.5 0 0 1 .5-.5c.774 0 1.742.284 2.585.83.848.55 1.612 1.396 1.9 2.549a.5.5 0 0 1-.97.242c-.212-.847-.781-1.502-1.475-1.952C22.84 9.216 22.06 9 21.5 9a.5.5 0 0 1-.5-.5ZM14 15a2.99 2.99 0 0 1-.802 2.041c-.75-.294-1.683-.541-2.698-.541-.687 0-1.336.113-1.917.278A3 3 0 1 1 14 15ZM18.97 15.242c.078-.31.575-1.242 2.03-1.242 1.455 0 1.952.931 2.03 1.242a1 1 0 1 0 1.94-.485C24.715 13.736 23.545 12 21 12s-3.715 1.735-3.97 2.758a1 1 0 1 0 1.94.485ZM16.67 17.92a1 1 0 1 0 0 2 .52.52 0 1 1 0 1.04 1 1 0 1 0 0 2 .52.52 0 1 1 0 1.04 1 1 0 1 0 0 2 2.52 2.52 0 0 0 2.01-4.04 2.52 2.52 0 0 0-2.01-4.04Z"/><path fill="#F70A8D" d="M23.742 26.57c1.097-.018 2.998-.232 4.737-1.339 2.693-1.714 1.81-5.582-2.22-4.976-.776-2.916-4.798-3.123-5.191.016-.264 2.102.69 4.315 1.293 5.464.273.518.795.843 1.38.834Z"/></svg>
